X:900
T:The Star of the County Down
M:3/4
L:1/4
K:Am
P:A
E/G/|"Am"A2A|"F"A>GA|"C"c2c|"G"d2c/d/|"C"e>dc|"Am"A>GE|"G"G3-|GcB|
"Am"A2A|"F"A>GA|"C"c2c|"G"d2c/d/|"Am"e>dc|"Dm"A2A|"Am"A3-|A2||
P:B
e|"C"g2e|e>dc|"G"d2d|d2c/d/|"Am"e>dc|A>GE|"G"G3-|GcB|
"Am"A2A|"F"A>GA|"C"c2c|"G"d2c/d/|"Am"e>dc|"Dm"A2A|"Am"A3-|A2||
T:Harmony
P:A
c/B/|"Am"A2E|"F"F2E/D/|"C"CDF|"G"G2^G|"C"A>Bc|"Am"f>ec|"G"d3-|dcB|
"Am"A2E|"F"F2E/D/|"C"CDF|"G"G2^G|"Am"A2A|"Dm"F2F|"Am"E3-|E2||
P:B
B|"C"c2c|c>BA|"G"G2A|B>AG|"Am"A2B|c>BA|"G"B3-|BAG|
"Am"A2E|"F"F2E/D/|"C"CDF|"G"G2^G|"Am"A2A|"Dm"F2F|"Am"E3-|E2||



%%newpage
%%textfont * 20
%%text W1 (1.0) p2
%%textfont * 12


